assets/images/exclamation.svg

<svg fill="none" height="26" viewBox="0 0 26 26" width="26" xmlns="http://www.w3.org/2000/svg"><path d="m11.75 16.75h2.5v2.5h-2.5zm0-10h2.5v7.5h-2.5zm1.25-6.25c-6.9125 0-12.5 5.625-12.5 12.5 0 3.3152 1.31696 6.4946 3.66117 8.8388 1.16073 1.1608 2.53872 2.0815 4.05529 2.7097s3.14204.9515 4.78354.9515c3.3152 0 6.4946-1.317 8.8388-3.6612s3.6612-5.5236 3.6612-8.8388c0-1.6415-.3233-3.26697-.9515-4.78354s-1.5489-2.89456-2.7097-4.05529c-1.1607-1.16074-2.5387-2.08148-4.0553-2.70966-1.5165-.628188-3.142-.95151-4.7835-.95151zm0 22.5c-2.6522 0-5.1957-1.0536-7.07107-2.9289-1.87536-1.8754-2.92893-4.4189-2.92893-7.0711s1.05357-5.1957 2.92893-7.07107c1.87537-1.87536 4.41887-2.92893 7.07107-2.92893s5.1957 1.05357 7.0711 2.92893c1.8753 1.87537 2.9289 4.41887 2.9289 7.07107s-1.0536 5.1957-2.9289 7.0711c-1.8754 1.8753-4.4189 2.9289-7.0711 2.9289z" fill="#fff"/></svg>

<svg width="26" height="26" viewBox="0 0 26 26" fill="none" xmlns="http://www.w3.org/2000/svg"><path d="M11.75 16.75H14.25V19.25H11.75V16.75ZM11.75 6.75H14.25V14.25H11.75V6.75ZM13 0.5C6.0875 0.5 0.5 6.125 0.5 13C0.5 16.3152 1.81696 19.4946 4.16117 21.8388C5.3219 22.9996 6.69989 23.9203 8.21646 24.5485C9.73303 25.1767 11.3585 25.5 13 25.5C16.3152 25.5 19.4946 24.183 21.8388 21.8388C24.183 19.4946 25.5 16.3152 25.5 13C25.5 11.3585 25.1767 9.73303 24.5485 8.21646C23.9203 6.69989 22.9996 5.3219 21.8388 4.16117C20.6781 3.00043 19.3001 2.07969 17.7835 1.45151C16.267 0.823322 14.6415 0.5 13 0.5ZM13 23C10.3478 23 7.8043 21.9464 5.92893 20.0711C4.05357 18.1957 3 15.6522 3 13C3 10.3478 4.05357 7.8043 5.92893 5.92893C7.8043 4.05357 10.3478 3 13 3C15.6522 3 18.1957 4.05357 20.0711 5.92893C21.9464 7.8043 23 10.3478 23 13C23 15.6522 21.9464 18.1957 20.0711 20.0711C18.1957 21.9464 15.6522 23 13 23Z" fill="#fff"/></svg>
